X:19
T:7. Ronde
T:il estoit une filette
C:Tielman Susato
B:Tielman Susato: Danserye (1551) no. 19
R:Ronde
Z:Transcribed by Frank Nordberg - http://www.musicaviva.com
F:http://abc.musicaviva.com/tunes/susato-tielman/susato-1551-19.abc
M:4/2
L:1/2
Q:1/2=172
K:Gdor
V:1
B>ABA|G>FGD|G/F/G/D/GF|GAD2::DD/E/FG|
V:2
F>FFF|D>DDD|_E>FED|D/_E/C=B,2::G,G,/G,/F,B,/C/|
V:3
D>CDC|B,>A,B,B,|B,B,CA,|B,/G,^F,/G,2::B,>B,A,G,|
V:4
B,,>F,B,,F,|G,>D,G,G,|_E,E,/D,/C,D,|B,,/C,/A,,G,,2::G,,/A,,/B,,/C,/D,_E,|
%
V:1
G^FG2|FF/G/AB|BAB2::A/F/B/c/ A/F/B|A/F/B/c/ A/F/c|
V:2
DDB,2|B,B,/B,/A,D/E/|FFD2::F/F/G/G/ F/F/G|F/F/G/G/ F/D/C|
V:3
A,2G,2|D>DCB,|C2B,2::D/D/D/E/DD/B,/|D/D/D/E/ D/A,/A,|
V:4
D,2_E,2|B,,/C,/D,/E,/F,G,|F,F,B,,2::D,/D,/G,/C,/ D,/D,/G,|D,/D,/G,/C,/ D,/D,/F,|
%
V:1
F/F/G/D/ F/F/G/D/|D/G/G/^F/G2::AA/G/F>F|F/F/E/E/D2|DD/E/F>G|
V:2
D/D/D/D/ D/D/D/D/|G/C/D=B,2::F>DD>D|D/B,/CF,2|G,G,/G,/F,F|
V:3
A,/A,/B,/B,/ A,/A,/B,/B,/|A,/G,/A,G,2::CC/B,/A,>G,|F,/B,/B,/A,/B,2|B,B,/B,/A,>B,|
V:4
D,/D,/G,/G,/ D,/D,/G,/G,/|D,/_E,/D,G,,2::F,>G,D,>D,|D,/D,/C,/C,/B,,2|G,,/A,,/B,,/C,/ D,/E,/F,-|
%
V:1
A/B/B/A/B2|AA/G/F>F|F/F/E/E/D2|DD/E/ F/D/G|F/G^F/G2:|
V:2
F/F/FD2|F>DD>D|D/B,/CF,2|G,G,/G,/F,D|D/C/D=B,2:|
V:3
C/D/CB,2|CC/B,/A,>G,|F,/B,/B,/A,/B,2|B,B,/B,/ A,/F,/B,|A,/G,/A,G,2:|
V:4
F,/B,,/F,B,,2|F,>G,D,>D,|D,/D,/C,B,,2|G,,/A,,/B,,/C,/D,G,,|D,/_E,/D,G,,2:|
W:
W:
W:  From Musica Viva - http://www.musicaviva.com
W:  the Internet center for free sheet music downloads.
